dist/img/logo.svg

<svg width="45" height="61" viewBox="0 0 45 61" fill="none" xmlns="http://www.w3.org/2000/svg">
<path fill-rule="evenodd" clip-rule="evenodd" d="M6.89319 0.000489806C7.10167 0.00977868 7.28148 0.14989 7.34145 0.34978L8.57776 4.47081L10.9416 2.107C11.0976 1.951 11.3385 1.91826 11.5305 2.02695C11.7224 2.13564 11.8183 2.35907 11.7648 2.57309L9.95401 9.8162H12.2702C12.5413 9.8162 12.7611 10.0359 12.7611 10.307V13.7427C12.7611 14.0138 12.5413 14.2335 12.2702 14.2335H9.8162V20.049L16.1096 40.3816L17.7989 41.1494C17.5545 39.1606 17.4279 36.714 17.6014 34.3212C17.7866 31.767 18.3175 29.2147 19.4618 27.3514C20.038 26.4133 20.7783 25.6357 21.7206 25.1302C22.6573 24.6277 25.0313 24.5405 25.0458 24.5394C27.4854 24.5394 29.7737 25.5884 30.9906 27.4613C32.1887 29.3054 32.6879 31.8002 32.7984 34.3353C32.9262 37.2688 32.5367 40.3378 32.0261 42.7005H32.8843C33.0371 42.7005 33.1813 42.7717 33.2741 42.8931L39.6547 51.2369C39.7371 51.3447 39.7712 51.4818 39.7489 51.6157C39.7267 51.7495 39.65 51.8682 39.5371 51.9434L36.9734 53.6525L40.6726 60.1261C40.7594 60.278 40.7587 60.4647 40.6709 60.616C40.5831 60.7673 40.4214 60.8604 40.2464 60.8604H11.2886C11.0176 60.8604 10.7978 60.6407 10.7978 60.3696V57.1092L6.49147 51.8459C6.34355 51.6651 6.34355 51.4051 6.49147 51.2243L9.56422 47.4687L7.85921 36.8888C7.81608 36.6212 7.99807 36.3693 8.26568 36.3262C8.53329 36.2831 8.7852 36.465 8.82833 36.7327L10.3949 46.4534L15.1591 40.6305L8.97686 20.6571C8.17402 20.7336 7.46041 20.7088 6.82833 20.5965L8.8286 33.2987C8.87077 33.5665 8.68789 33.8178 8.42012 33.8599C8.15235 33.9021 7.9011 33.7192 7.85893 33.4514L5.78911 20.3075C4.31169 19.7278 3.49928 18.583 3.11025 17.3539C2.776 16.2979 2.74782 15.1685 2.86084 14.2335H0.49081C0.219743 14.2335 0 14.0138 0 13.7427V10.307C0 10.0359 0.219743 9.8162 0.49081 9.8162H2.80705L0.996274 2.57309C0.944459 2.36583 1.03266 2.14886 1.2144 2.03655C1.39613 1.92423 1.62964 1.94237 1.79184 2.0814L4.707 4.58011L6.41563 0.308531C6.49314 0.114766 6.6847 -0.00879907 6.89319 0.000489806ZM3.81888 9.8162H8.94218L10.3827 4.05409L8.69083 5.74597C8.56867 5.86812 8.39129 5.91706 8.22378 5.87483C8.05627 5.8326 7.9233 5.70541 7.87366 5.53995L6.80508 1.97801L5.36381 5.5812C5.30501 5.72819 5.17891 5.8378 5.02516 5.87556C4.87141 5.91332 4.70889 5.8746 4.58869 5.77156L2.32201 3.8287L3.81888 9.8162ZM3.85057 14.2335C3.73353 15.0815 3.74891 16.1187 4.04611 17.0577C4.38557 18.1302 5.08243 19.0563 6.37997 19.4767C7.01881 19.6837 7.82398 19.7756 8.83458 19.6845V14.2335H3.85057ZM15.8466 41.3403L7.5055 51.5351L11.2809 56.1494L16.3016 49.7594C16.4691 49.5462 16.7776 49.5092 16.9908 49.6767C17.2039 49.8442 17.2409 50.1527 17.0735 50.3659L11.7794 57.1037V59.8788H20.3614L31.9305 43.6821H21.3769L19.067 47.3779C18.9233 47.6078 18.6205 47.6776 18.3906 47.534C18.1608 47.3903 18.0909 47.0875 18.2346 46.8576L20.3917 43.4063L15.8466 41.3403ZM21.2111 42.7005H31.0211C31.5324 40.41 31.9325 37.3892 31.8231 34.5111C30.0091 31.7379 28.1764 30.5204 26.5097 30.182C24.8501 29.8451 23.2486 30.358 21.8415 31.276C20.839 32.7948 19.9331 34.9736 20.2121 36.7723C20.3498 37.6599 20.7753 38.4603 21.6494 39.0731C22.5384 39.6963 23.9289 40.1512 26.0352 40.2469C26.306 40.2592 26.5155 40.4887 26.5032 40.7595C26.4909 41.0303 26.2614 41.2398 25.9906 41.2275C23.7778 41.127 22.1818 40.6452 21.0859 39.8768C19.975 39.098 19.4172 38.0517 19.2421 36.9228C19.039 35.6137 19.3501 34.2038 19.8601 32.9422C19.3616 33.464 18.927 34.0068 18.5713 34.5232C18.4003 37.0469 18.5694 39.6331 18.8523 41.6283L21.2111 42.7005ZM18.7618 32.688C19.4508 31.9046 20.2808 31.1363 21.2159 30.5127C22.7776 29.4712 24.6745 28.8078 26.705 29.22C28.3727 29.5586 30.056 30.6076 31.6702 32.6236C31.4416 30.8428 30.9692 29.2302 30.1674 27.9961C29.133 26.404 27.5326 25.4089 25.0536 25.5216C25.029 25.5227 25.0044 25.522 24.9799 25.5194C23.8542 25.4009 22.9377 25.5912 22.1847 25.9952C21.4282 26.401 20.8053 27.0396 20.2983 27.8651C19.5126 29.1445 19.0267 30.8384 18.7618 32.688ZM32.8977 44.0169L38.5568 51.4172L36.0477 53.0899C36.0208 53.1078 35.9957 53.1284 35.9729 53.1512L34.0096 55.1145C33.818 55.3062 33.818 55.6169 34.0096 55.8086C34.2013 56.0003 34.5121 56.0003 34.7038 55.8086L36.2126 54.2997L39.4007 59.8788H21.5678L32.8977 44.0169ZM0.98162 10.7978V13.2519H11.7794V10.7978H0.98162Z" fill="black"/>
<path fill-rule="evenodd" clip-rule="evenodd" d="M25.8446 13.5183C25.9339 13.3352 26.1271 13.2264 26.3301 13.2448L37.1279 14.2264C37.2534 14.2379 37.3698 14.2972 37.4528 14.392L44.3241 22.245C44.4565 22.3963 44.4833 22.6131 44.3916 22.792C44.2999 22.9709 44.1084 23.0759 43.9082 23.0568L41.6908 22.8456L39.2776 28.5914L38.5504 33.4388C38.5102 33.7069 38.2603 33.8916 37.9923 33.8514C37.7242 33.8112 37.5395 33.5613 37.5797 33.2932L38.0803 29.9556L35.9707 32.2276C35.7862 32.4262 35.4757 32.4377 35.277 32.2532C35.0784 32.0688 35.0669 31.7582 35.2513 31.5596L38.3824 28.1877L40.6671 22.7481L39.0898 22.5979L37.5224 25.7326C37.4634 25.8506 37.3594 25.9399 37.2338 25.9803C37.1082 26.0207 36.9716 26.0088 36.8548 25.9474L27.5295 21.0393C27.4023 20.9723 27.3108 20.853 27.2792 20.7127C27.2477 20.5725 27.2792 20.4255 27.3654 20.3105L29.3268 17.6952L25.9276 14.0693C25.7882 13.9207 25.7552 13.7014 25.8446 13.5183ZM30.0085 18.4223L28.4962 20.4388L36.8686 24.8453L38.0422 22.4981L33.6012 22.0752C33.4822 22.0638 33.3715 22.0095 33.2897 21.9223L30.0085 18.4223ZM27.5261 14.3392L33.879 21.1156L42.7727 21.9626L36.8434 15.1863L27.5261 14.3392Z" fill="#CA0000"/>
<path d="M40.5191 28.4579C40.5191 29.5422 39.6401 30.4211 38.5558 30.4211C37.4716 30.4211 36.5926 29.5422 36.5926 28.4579C36.5926 27.3736 37.4716 26.4947 38.5558 26.4947C39.6401 26.4947 40.5191 27.3736 40.5191 28.4579Z" fill="#CA0000"/>
</svg>

<svg width="45" height="61" fill="none" xmlns="http://www.w3.org/2000/svg"><path fill-rule="evenodd" clip-rule="evenodd" d="M6.893 0a.49.49 0 01.448.35l1.237 4.12 2.364-2.363a.49.49 0 01.823.466L9.954 9.816h2.316c.271 0 .491.22.491.491v3.436a.49.49 0 01-.49.49H9.815v5.816l6.294 20.333 1.689.767c-.244-1.988-.371-4.435-.198-6.828.186-2.554.716-5.106 1.86-6.97.577-.938 1.317-1.715 2.26-2.22.936-.503 3.31-.59 3.325-.592 2.44 0 4.728 1.05 5.945 2.922 1.198 1.844 1.697 4.34 1.807 6.874.128 2.934-.261 6.003-.772 8.365h.858a.49.49 0 01.39.193l6.38 8.344a.49.49 0 01-.117.706l-2.564 1.71 3.7 6.473a.49.49 0 01-.427.734H11.29a.49.49 0 01-.491-.49v-3.26L6.49 51.845a.49.49 0 010-.622l3.073-3.755-1.705-10.58a.49.49 0 11.97-.156l1.566 9.72 4.764-5.823-6.182-19.973c-.803.077-1.517.052-2.149-.06l2 12.702a.49.49 0 11-.97.152L5.79 20.308c-1.477-.58-2.29-1.725-2.679-2.954-.334-1.056-.362-2.185-.25-3.12H.49a.49.49 0 01-.49-.491v-3.436c0-.271.22-.49.49-.49h2.317L.997 2.572a.49.49 0 01.795-.492l2.915 2.5L6.416.308A.49.49 0 016.893 0zM3.82 9.816h5.123l1.44-5.762-1.691 1.692a.49.49 0 01-.817-.206l-1.07-3.562-1.441 3.603a.49.49 0 01-.775.19L2.322 3.83l1.497 5.987zm.032 4.417c-.117.848-.102 1.886.195 2.825.34 1.072 1.036 1.998 2.334 2.419.639.207 1.444.299 2.455.207v-5.45H3.85zM15.847 41.34L7.506 51.535l3.775 4.614 5.02-6.39a.49.49 0 11.773.607l-5.295 6.738v2.775h8.582l11.57-16.197H21.377l-2.31 3.696a.49.49 0 01-.832-.52l2.157-3.452-4.545-2.066zm5.364 1.36h9.81c.511-2.29.912-5.31.802-8.189-1.814-2.773-3.647-3.99-5.313-4.329-1.66-.337-3.261.176-4.669 1.094-1.002 1.519-1.908 3.698-1.629 5.496.138.888.563 1.688 1.437 2.301.89.623 2.28 1.078 4.386 1.174a.49.49 0 11-.044.98c-2.213-.1-3.81-.582-4.905-1.35-1.111-.779-1.669-1.825-1.844-2.954-.203-1.31.108-2.72.618-3.98a12.933 12.933 0 00-1.289 1.58c-.17 2.524-.002 5.11.281 7.105l2.36 1.072zm-2.45-10.012a12.724 12.724 0 012.455-2.175c1.562-1.042 3.458-1.705 5.489-1.293 1.668.339 3.351 1.388 4.965 3.404-.228-1.781-.7-3.394-1.503-4.628-1.034-1.592-2.634-2.587-5.113-2.474a.49.49 0 01-.074-.003c-1.126-.118-2.042.072-2.795.476-.757.406-1.38 1.045-1.887 1.87-.785 1.28-1.271 2.973-1.536 4.823zm14.137 11.329l5.659 7.4-2.51 1.673a.49.49 0 00-.074.061l-1.963 1.963a.49.49 0 00.694.695l1.509-1.51 3.188 5.58H21.568l11.33-15.862zM.982 10.797v2.455h10.797v-2.454H.982z" fill="#000"/><path fill-rule="evenodd" clip-rule="evenodd" d="M25.845 13.518a.49.49 0 01.485-.273l10.798.981a.495.495 0 01.325.166l6.871 7.853a.49.49 0 01-.416.812l-2.217-.211-2.413 5.745-.728 4.848a.49.49 0 11-.97-.146l.5-3.337-2.11 2.272a.49.49 0 01-.719-.668l3.131-3.372 2.285-5.44-1.577-.15-1.568 3.135a.49.49 0 01-.667.214L27.53 21.04a.491.491 0 01-.165-.729l1.962-2.615-3.4-3.626a.49.49 0 01-.082-.55zm4.164 4.904l-1.513 2.017 8.373 4.406 1.173-2.347-4.44-.423a.491.491 0 01-.312-.153l-3.281-3.5zm-2.483-4.083l6.353 6.777 8.894.847-5.93-6.777-9.317-.847z" fill="#CA0000"/><path d="M40.52 28.458a1.963 1.963 0 11-3.927 0 1.963 1.963 0 013.926 0z" fill="#CA0000"/></svg>
